X: 6
T: The Tempest
R: reel
M: 4/4
L: 1/8
K: Edor
e2dB AFF2|EFdF eFdF|e2dB AF F2|EFBF AFEF|e2dB AFF2|EFdF eFdF|EFGB AFdF|FEdA FEE2:|e2fe dBAB|Beed BAFA|e2fe defg|fedf e3B|fgeg fedB|edBA BAFA|EFGB AFdF|FEdA FEE2:|


Tune 1004	Setting 23275

